X: 38264
T: St. Agnes Glenuig
R: jig
M: 6/8
K: Dmajor
FFF FED|EEE EDE|GGG GFE|FFF FED|
FFF FED|EEE EDE|G2 F2 E2|F2 D2 z2:|
|:AAA FAd|fff FAd|ggg GBd|fzf fed|
AAA FAd|fff FAd|G2 F2 E2|F2 D2 z2:|

